X: 305601
M: 2/4
L: 1/16
K: D
dB |\
|: A2 |\
defd A2A2 | defd A2A2 | dcde fefg | a2A2 A2A2 |\
defd efge | fgaf gfef | d2B2 BAGB | A2D2D2 :|


